X: 154
T: Golden Wedding Reel
C: R-76
M: C|
Z: Transcribed to abc by Mary Lou Knack
R: reel
K: G
Bc| "G"d2BG DGBd| gedB GABd| "F"(3cdc A=F cFAB| cdcA =F2Bc|
    "G"d2BG DGBd| gedB G2ef| "C"gfge "G"dBge| "D7"dcAF "G"G2:|
|:\
ef| "C"gfga gecg| ecgc (3efg cg| "D7"daab afda| fdad fdef|
    "C"gfga gecg| ecgc (3efg cg| "D"afge dBge| "D7"dBAB "G"G2:|
%%text 9/1/98.  From Jerry Rubichaud via Donna Hinds. Also known as "Richibucto Reel".
% ---------- page 80 ----------
